X: 28017
T: Moving Cloud, The
R: reel
M: 4/4
K: Gmajor
|:DGBG EGcG|DGBG AGEG|cEGc B/c/d gb|aged cEGE|
D3GE3G|DGBG AGEG|cEGc BDGB|1 A^GAB =G2GE:|2 A^GAB =G3B||
d2 bd adgd|d2 bd adgd|e2 c'e beae|e2 c'e beae|
d2 bd adgd|d2 bd adgd|c'bac' bage|dBAB G3B|
d2 bd adgd|d2 bd adgd|e2 c'e beae|c'ebe aebe|
d2 bd adgd|d2 bd adgd|cBAc BDGB|A^GAB =G3A||
|:B/^c/d cd edBA|B/^c/d cd edBd|cee2 feef|gefd edBA|
B/^c/d cd edBA|B/^c/d cd edBd|cABG AFGE|1 FDEF G3A:|2 FDEF G2GE||

